X:1
T:Title
%%score { ( 1 3 ) | 2 }
L:1/8
M:4/4
K:Ab
V:1 treble nm="Grand Piano"
V:3 treble 
V:2 bass 
V:1
 z4 z2[Q:1/4=96] [CE]>[CE] | [CA]2 [Ec]>[DB] [CA]2 [EB]>[EA] | [DF]4 [FA]2 [EG]>[DF] | %3
 [CE]2 [EA]>B c2 [Ee]>[Ee] | B6 E>E | [CA]2 [Ec]>[DB] [CA]2 [EB]>[EA] | [DF]4 [FA]2 [EG]>F | %7
 E2 A>c e2 c>B |[M:3/4] [CA]6 |[M:1/4] B>c |[M:4/4] d2 d>d d2 c>B | z2 e2 z4 | d2 d>d d2 c>B | %13
 c6 [CE]2 | [CA]2 [Ec]>[DB] [CA]2 [EB]>[EA] | [DF]4 [FA]2 [EG]>F | E2 A>c e2 c>B |[M:3/4] [CA]6 |] %18
V:2
 z4 z2 [A,,A,]>[A,,A,] | [A,,A,]2 [A,,A,]>[A,,A,] [A,,A,]2 [B,,G,]>[C,A,] | %2
 [D,A,]4 [D,A,]2 [D,A,]>[D,A,] | [A,,A,]2 [C,A,]>[E,G,E] [A,E]2 [C,A,]>[C,A,] | %4
 [E,G,E]6 [E,G,]>[E,G,] | [A,,A,]2 [A,,A,]>[A,,A,] [A,,A,]2 [B,,G,]>[C,A,] | %6
 [D,A,]4 [D,A,]2 [D,A,]>[D,A,D] | [E,A,C]2 [E,A,C]>[E,A,E] [E,A,E]2 [E,A,E]>[E,G,D] | %8
[M:3/4] [A,,A,]6 |[M:1/4] [E,G,E]>[E,A,E] | %10
[M:4/4] [E,B,E]2 [E,B,E]>[E,B,E] [E,B,E]2 [E,A,E]>[E,G,E] | %11
 [A,E]2 .[A,CE]2 [E,B,]2 [E,G,E]>[E,A,E] | [E,G,E]2 [E,G,E]>[E,G,E] [E,G,E]2 [E,A,E]>[E,G,E] | %13
 [A,E]6 [A,,A,]2 | [A,,A,]2 [A,,A,]>[A,,A,] [A,,A,]2 [B,,G,]>[C,A,] | %15
 [D,A,]4 [D,A,]2 [D,A,]>[D,A,D] | [E,A,C]2 [E,A,C]>[E,A,E] [E,A,E]2 [E,A,E]>[E,G,D] | %17
[M:3/4] [A,,A,]6 |] %18
V:3
 x8 | x8 | x8 | x8 | x8 | x8 | x8 | x8 |[M:3/4] x6 |[M:1/4] x2 |[M:4/4] x8 | c2 z F [Ge]2 B>c | %12
 x8 | x8 | x8 | x8 | x8 |[M:3/4] x6 |] %18

